X:1
T:Aarhus, 10.10.10 D
T:Aarhus, 10.10.10 D
T:Robert Lowry, 1871
T:Public Domain Courtesy of the Cyber Hymnal™
C:Robert Lowry, 1871
Z:Public Domain
Z:Courtesy of the Cyber Hymnal™
%%score ( 1 2 ) ( 3 4 )
L:1/8
Q:1/4=100
M:9/8
K:C
V:1 treble 
V:2 treble 
V:3 bass 
V:4 bass 
V:1
 [EG][EG][FA] [EG] | [EG]3 [CE]2 [EG] [FA][Ac][FA] | [EG]3- [EG]2 [EG] [EG][DF][CE] | %3
 [DF]3 [B,D]2 [CE] [DF][FA][EG] | [CE]3- [CE]2 [EG] [EG][FA][EG] | [EG]3 [CE]2 [EG] [Gc][GB][Gc] | %6
 [FA]3- [FA]2 [FA] [Fd][Ac][FA] | [EG]3 [D^F]2 [DG] [DB][DB][CA] | [B,G]3- [B,G]2 G [Gd][Gc][Gd] | %9
 [Ge]3 [Ec]2 [Gc] [Ac][GB][FA] | [EG]3- [EG]2 [EG] [FA][GB][Ac] | [Fd]3 [FA]2 [Fc] [FB][FA][FB] | %12
 [Ec]3- [Ec]2 |] %13
V:2
 x4 | x9 | x9 | x9 | x9 | x9 | x9 | x9 | x5 G x3 | x9 | x9 | x9 | x5 |] %13
V:3
 [C,C][C,C][C,C] [C,C] | [C,C]3 [C,G,]2 [C,C] [F,C][F,C][F,C] | [C,C]3- [C,C]2 [C,C] [G,C]G,G, | %3
 G,3 G,2 G, [G,,G,][G,,G,][G,,G,] | [C,G,]3- [C,G,]2 [C,C] [C,C][C,C][C,C] | %5
 [C,C]3 [C,G,]2 [C,C] [C,E][D,D][E,C] | [F,C]3- [F,C]2 [F,C] [F,A,][F,C][F,C] | %7
 [C,C]3 [C,A,]2 [B,,G,] [D,G,][D,G,][D,^F,] | [G,,G,]3- [G,,G,]2 G, [G,B,][G,A,][G,B,] | %9
 C3 [C,G,]2 [E,C] [F,C][F,C][F,C] | [C,C]3- [C,C]2 [C,C] [F,C][F,C][F,C] | %11
 [F,A,]3 [F,C]2 [F,A,] G,G,G, | [C,G,]3- [C,G,]2 |] %13
V:4
 x4 | x9 | x7 G,G, | G,3 G,2 G, x3 | x9 | x9 | x9 | x9 | x5 G, x3 | C3 x6 | x9 | x6 G,G,G, | x5 |] %13

